**kern	**kern	**kern	**kern	**dynam
*part4	*part3	*part2	*part1	*part1
*staff4	*staff3	*staff2	*staff1	*
*I"Cello	*I"Viola	*I"2nd Violin	*I"1st Violin	*
*clefF4	*clefC3	*clefG2	*clefG2	*
*k[b-e-]	*k[b-e-]	*k[b-e-]	*k[b-e-]	*
*B-:	*B-:	*B-:	*B-:	*
*M2/4	*M2/4	*M2/4	*M2/4	*
=1	=1	=1	=1	=1
2r	2r	2r	(4b-	.
.	.	.	4cc)	.
=2	=2	=2	=2	=2
.	.	.	16qqb-/	.
2r	2r	2r	8aL	.
.	.	.	16gL	.
.	.	.	16fJJ	.
.	.	.	8b-L	.
.	.	.	8b-J	.
=3	=3	=3	=3	=3
2r	8AL	8fL	8ccL	.
.	8AJ	8fJ	8ccJ	.
.	8B-L	8fL	8ddL	.
.	8B-J	8fJ	8ddJ	.
=4	=4	=4	=4	=4
2r	(8dL	4f	(8ffL	.
.	8cJ)	.	8ee-J)	.
.	4A	4r	4cc	.
=5	=5	=5	=5	=5
2r	2r	2r	4b-	.
.	.	.	4cc	.
=6	=6	=6	=6	=6
.	.	.	16qqb-/	.
2r	2r	2r	8aL	.
.	.	.	16gL	.
.	.	.	16fJJ	.
.	.	.	8b-L	.
.	.	.	8b-J	.
=7	=7	=7	=7	=7
2r	8E-L	8gL	8ccL	.
.	8E-J	8gJ	8ccJ	.
.	8FL	8AL	8fL	.
.	8FJ	8AJ	8fJ	.
=8	=8	=8	=8	=8
2r	4B-	4B-	4d	.
.	4r	4r	4r	.
=9	=9	=9	=9	=9
2r	2r	(4b-	(4bb-	.
.	.	4cc)	4ccc)	.
=10	=10	=10	=10	=10
.	.	16qqb-/	16qqbb-/	.
2r	2r	8aL	8aaL	.
.	.	16gL	16ggL	.
.	.	16fJJ	16ffJJ	.
.	.	8b-L	8bb-L	.
.	.	8b-J	8bb-J	.
=11	=11	=11	=11	=11
8AL	8fL	8ccL	8cccL	.
8AJ	8fJ	8ccJ	8cccJ	.
8B-L	8fL	8ddL	8dddL	.
8B-J	8fJ	8ddJ	8dddJ	.
=12	=12	=12	=12	=12
(8dL	4f	(8ffL	(8fffL	.
8cJ)	.	8ee-J)	8eee-J)	.
4A	4r	4cc	4ccc	.
=13	=13	=13	=13	=13
2r	2r	(4b-	(4bb-	.
.	.	4cc)	4ccc)	.
=14	=14	=14	=14	=14
.	.	16qqb-/	16qqbb-/	.
2r	2r	8aL	8aaL	.
.	.	16gL	16ggL	.
.	.	16fJJ	16ffJJ	.
.	.	8b-L	8bb-L	.
.	.	8b-J	8bb-J	.
=15	=15	=15	=15	=15
8E-L	8gL	8ccL	8cccL	.
8E-J	8gJ	8ccJ	8cccJ	.
8FL	8AL	8fL	8ffL	.
8FJ	8AJ	8fJ	8ffJ	.
=16	=16	=16	=16	=16
4BB-	4B-	4d	4dd	.
8r	8r	4r	4r	.
(8B-	(8b-	.	.	.
=17	=17	=17	=17	=17
8cL)	8ccL)	2r	2r	.
8c'J	8cc'J	.	.	.
8F'L	8f'L	.	.	.
8F'J	8f'J	.	.	.
=18	=18	=18	=18	=18
4D	4d	(8fL	(8ffL	.
.	.	8d	8dd	.
8r	8r	8B-J)	8b-J)	.
(8B-	(8b-	8r	8r	.
=19	=19	=19	=19	=19
8cL)	8ccL)	2r	2r	.
8c'J	8cc'J	.	.	.
8F'L	8f'L	.	.	.
8F'J	8f'J	.	.	.
=20	=20	=20	=20	=20
4D	4d	(8fL	(8ffL	.
.	.	8d	8dd	.
8r	8r	8b-J)	8bb-J)	.
(8B-	(8b-	8r	8r	.
=21	=21	=21	=21	=21
8cL)	8ccL)	2r	2r	.
8c'J	8cc'J	.	.	.
8F'L	8f'L	.	.	.
8F'J	8f'J	.	.	.
=22	=22	=22	=22	=22
4.D	4.d	(8.fL	(8.ffL	.
.	.	32gLL	32ggLL	.
.	.	32aJJJ	32aaJJJ	.
.	.	8b-L)	8bb-L)	.
8D'	8f'	8a'J	8aa'J	.
=23	=23	=23	=23	=23
8E-'L	8e-'L	8g'L	8gg'L	.
8F'J	8d'J	8f'J	8ff'J	.
8G'L	8c'L	8e-'L	8ee-'L	.
8En'J	8B-'J	8d'J	8dd'J	.
=24	=24	=24	=24	=24
4F	(8dL	(8fL	(8ffL	.
.	8B-J)	8dJ)	8ddJ)	.
4r	4A	8cL	8ccL	.
.	.	(8b-J	(8bb-J	.
=25	=25	=25	=25	=25
2r	2r	8ccL)	8cccL)	.
.	.	8cc'J	8ccc'J	.
.	.	8f'L	8ff'L	.
.	.	8f'J	8ff'J	.
=26	=26	=26	=26	=26
(8FL	(8fL	4d	4dd	.
8D	8d	.	.	.
8BB-J)	8B-J)	8r	8r	.
8r	8r	(8b-	(8bb-	.
=27	=27	=27	=27	=27
2r	2r	8ccL)	8cccL)	.
.	.	8cc'J	8ccc'J	.
.	.	8f'L	8ff'L	.
.	.	8f'J	8ff'J	.
=28	=28	=28	=28	=28
(8FL	(8fL	4d	4dd	.
8D	8d	.	.	.
8B-J)	8b-J)	8r	8r	.
8r	8r	(8b-	(8bb-	.
=29	=29	=29	=29	=29
2r	2r	8ccL)	8cccL)	.
.	.	8cc'J	8ccc'J	.
.	.	8f'L	8ff'L	.
.	.	8f'J	8ff'J	.
=30	=30	=30	=30	=30
(4.F#X	[2c	(4.d	(4.dd	.
8G	.	8e-	8ee-	.
=31	=31	=31	=31	=31
8F#XL	2c]	8dL	8ddL	.
8GJ	.	8e-J	8ee-J	.
8F#L	.	8dL	8ddL	.
8AJ)	.	8f#XJ)	8ff#XJ)	.
=32	=32	=32	=32	=32
4G	4B-	8.gTL	8.ggTL	.
.	.	16aJk	16aaJk	.
8r	8r	8b-L	8bb-L	.
(8F	(8A-X	(8d-XJ	(8dd-XJ	.
=33	=33	=33	=33	=33
8EnL	8GL	8cL	8ccL	.
8FJ	8A-XJ	8d-XJ	8dd-XJ	.
8EL	8GL	8cL	8ccL	.
8GJ)	8B-J)	8enJ)	8eenJ)	.
=34	=34	=34	=34	=34
4F	4A-X	8.fTL	8.ffTL	.
.	.	16gJk	16ggJk	.
4r	4r	4a-X	8aa-XL	.
.	.	.	8ccJ	.
=35	=35	=35	=35	=35
2r	2r	2r	(8ffL	.
.	.	.	8ee-J	.
.	.	.	8dd-XL	.
.	.	.	8ccJ)	.
=36	=36	=36	=36	=36
2r	8d-XL	8fL	(8ccL	.
.	8d-J	8fJ	8bnJ)	.
.	8d-L	8fL	8r	.
.	8d-J	8fJ	8b	.
=37	=37	=37	=37	=37
2r	8d-XL	8fL	(8ffL	.
.	8d-J	8fJ	8ggJ	.
.	8d-L	8fL	8aa-XL)	.
.	8d-J	8fJ	8bnJ	.
=38	=38	=38	=38	=38
2r	8cL	8enL	(8ddL	.
.	8cJ	8eJ	8ccJ)	.
.	8cL	8eL	8r	.
.	8cJ	8eJ	(8cc	.
=39	=39	=39	=39	=39
2r	8cL	8enL	8ddL	.
.	8cJ	8eJ	8eenJ	.
.	8cL	8eL	8ffL	.
.	8cJ	8eJ	8ggJ	.
=40	=40	=40	=40	=40
2r	8BnL	8dL	8bb-L	.
.	8BJ	8dJ	8aa-XJ)	.
.	8BL	8dL	8r	.
.	8BJ	8dJ	(8aa-	.
=41	=41	=41	=41	=41
2r	8BnL	8dL	8ggL	.
.	8BJ	8dJ	8aa-XJ	.
.	8BL	8dL	8ggL	.
.	8BJ	8dJ	8ffJ)	.
=42	=42	=42	=42	=42
2r	4c	4c	(8eenL	.
.	.	.	8ggJ)	.
.	8r	8r	8ggL	.
.	(8d-X	(8bn	8ffJ	.
=43	=43	=43	=43	=43
2r	4c)	4cc)	(8eenL	.
.	.	.	8ggJ)	.
.	8r	8r	8ggL	.
.	(8d-X	(8bn	8ffJ	.
=44	=44	=44	=44	=44
4r	4c)	4cc)	(8eenL	.
.	.	.	8ggJ)	.
8r	8r	8r	8ggL	.
8G'	8g'	8dd' 8ff	8bbn'J	.
=45	=45	=45	=45	=45
8c'L	8g'L	8cc'L 8een	8ccc'L	.
8G'J	8g'J	8dd'J 8ff	8bbn'J	.
8c'L	8g'L	8cc'L 8ee	8ccc'L	.
8G'J	8g'J	8dd'J 8ff	8bb'J	.
=46	=46	=46	=46	=46
4c	4g	4cc 4een	4ccc	.
4r	4r	4r	8r	.
.	.	.	(8bn	p
=47	=47	=47	=47	=47
2r	2r	2r	8ccL	.
.	.	.	8cc#XJ	.
.	.	.	8ddL	.
.	.	.	8b-J)	.
=48	=48	=48	=48	=48
(4.F	[2c	(4.a	4a	.
.	.	.	4r	.
8A)	.	8cc)	.	.
=49	=49	=49	=49	=49
8En'L	2c_	8g'L	2r	.
8E'J	.	8g'J	.	.
8E'L	.	8g'L	.	.
8F#X'J	.	8a'J	.	.
=50	=50	=50	=50	=50
(8AL	4c]	(8ccL	8r	.
8GJ)	.	8b-J)	(16ccLL	.
.	.	.	16ddJJ	.
8G'	4r	8b-'	8eenL)	.
8r	.	8r	(16eeL	.
.	.	.	16ffJJ	.
=51	=51	=51	=51	=51
2r	2r	2r	8ggL)	.
.	.	.	(16eenL	.
.	.	.	16ffJJ	.
.	.	.	8ggL)	.
.	.	.	(16ggL	.
.	.	.	16aaJJ	.
=52	=52	=52	=52	=52
(4.G	[2c	(4.b-	4bb-)	.
.	.	.	4r	.
8B-)	.	8dd)	.	.
=53	=53	=53	=53	=53
8F'L	2c]	8a'L	2r	.
8F'J	.	8a'J	.	.
8F'L	.	8a'L	.	.
8G'J	.	8b-'J	.	.
=54	=54	=54	=54	=54
(8B-L	(8enL	(8ddL	8r	.
8AJ)	8fJ)	8ccJ)	(16ffLL	.
.	.	.	16ggJJ	.
8A'	8f'	8cc'	8aaL)	.
8r	8r	8r	(16aaL	.
.	.	.	16bb-JJ	.
=55	=55	=55	=55	=55
2r	2r	2r	8cccL)	.
.	.	.	(16aaL	.
.	.	.	16bb-JJ	.
.	.	.	8cccL)	.
.	.	.	(16cccL	.
.	.	.	16dddJJ	.
=56	=56	=56	=56	=56
2r	(4.f#X	(4.a	4.eee-)	.
.	8cc)	8ee-)	8ff#X)	.
=57	=57	=57	=57	=57
4r	8b-L	8ddL	(4gg	.
.	8b-J	8ddJ	.	.
4D	8aL	8ccL	4aa)	.
.	8aJ	8ccJ	.	.
=58	=58	=58	=58	=58
4GG	(8f#XL	(8aL	(8ccc	.
.	8gJ)	8b-J)	4bb-	.
4r	8gL	8b-L	.	.
.	8b-J	8dd-XJ	8een)	.
=59	=59	=59	=59	=59
4r	8aL	8ccL	(4ff	.
.	8aJ	8ccJ	.	.
4C	8gL	8b-L	4gg)	.
.	8gJ	8b-J	.	.
=60	=60	=60	=60	=60
4FF	(8enL	(8gL	(8bb-L	.
.	8fJ)	8aJ)	8aaJ)	.
4r	8r	8r	(4ccc	.
.	8f	8a	.	.
=61	=61	=61	=61	=61
2r	8r	8r	4bb-	.
.	8g	8b-	.	.
.	8r	8r	[4aa)	.
.	8a	8cc	.	.
=62	=62	=62	=62	=62
4r	(2b-	(2dd	8aaL]	.
.	.	.	(8ggJ	.
4B-	.	.	8aaL	.
.	.	.	[8bb-J	.
=63	=63	=63	=63	=63
4c	4a	4cc	8bb-])	.
.	.	.	(4ff	.
4C	4g)	4b-)	.	.
.	.	.	8gg)	.
=64	=64	=64	=64	=64
4F	(8enL	(8g#XL	(8gg#XL	.
.	8fJ)	8aJ)	8aaJ)	.
(4FF	(4A	8r	8r	.
.	.	[8cc	[8ccc	.
=65	=65	=65	=65	=65
4GG	4B-	8cc]	8ccc]	.
.	.	(4b-	(4bb-	.
4AA)	4c)	.	.	.
.	.	[8a)	[8aa)	.
=66	=66	=66	=66	=66
(4BB-	(4d	(8aL]	(8aaL]	.
.	.	8gJ)	8ggJ)	.
4GG	4B-	8r	8r	.
.	.	[8dd	[8ddd	.
=67	=67	=67	=67	=67
4AA	4c	8dd]	8ddd]	.
.	.	(4cc	(4ccc	.
4BB-)	4d)	.	.	.
.	.	[8b-)	[8bb-)	.
=68	=68	=68	=68	=68
(4C	(4e-X	(8b-L]	(8bb-L]	.
.	.	8aJ)	8aaJ)	.
4AA	4c	8r	8r	.
.	.	[8ee-	[8eee-	.
=69	=69	=69	=69	=69
4BB-	4d	8ee-]	8eee-]	.
.	.	(4dd	(4ddd	.
4C)	4e-)	.	.	.
.	.	8cc)	8ccc)	.
=70	=70	=70	=70	=70
8DL	8f	(2b-	(2bb-	.
8DJ	4g	.	.	.
8DL	.	.	.	.
8DJ	[8a-X	.	.	.
=71	=71	=71	=71	=71
8DL	8a-]	2bn)	2bbn)	.
8DJ	4g	.	.	.
8DL	.	.	.	.
8DJ	8f	.	.	.
=72	=72	=72	=72	=72
8EnL	4g	(4.cc	8cccL	.
8EJ	.	.	8ggJ	.
8EL	4r	.	[4bb-	.
8EJ	.	8dd-X)	.	.
=73	=73	=73	=73	=73
8FL	(4.cc	(8ccL	(4bb-]	.
8FJ	.	8eenJ	.	.
8FL	.	4ff)	[4aa)	.
8FJ	8cc#X)	.	.	.
=74	=74	=74	=74	=74
8BB-L	8ddL	4r	(16aaLL]	.
.	.	.	16gg	.
8BB-J	8dJ	.	16ff#X	.
.	.	.	16ggJJ	.
8BB-L	8dL	8r	16ff#LL	.
.	.	.	16gg	.
8BB-J	8dJ	(16ddLL	16bb-	.
.	.	16b-JJ)	16ggJJ)	.
=75	=75	=75	=75	=75
8CL	8cL	(4a	(4ff	.
8CJ	8cJ	.	.	.
8D-XL	8B-L	4g)	4een)	.
8D-J	8B-J	.	.	.
=76	=76	=76	=76	=76
4D	4A	4f	8ffL	.
.	.	.	(16aaL	.
.	.	.	16ggJJ	.
4r	4r	4r	16ffLL	.
.	.	.	16een	.
.	.	.	16dd	.
.	.	.	16ccJJ	.
=77	=77	=77	=77	=77
8r	8r	8r	2bn)	.
8G	8d	8f	.	.
8GL	8dL	8fL	.	.
8GJ	8dJ	8fJ	.	.
=78	=78	=78	=78	=78
4C	4c	4en	8r	.
.	.	.	(16ggLL	.
.	.	.	16ffJJ	.
8r	8r	8r	16eenLL	.
.	.	.	16dd	.
8C	8en	8g	16cc	.
.	.	.	16b-JJ	.
=79	=79	=79	=79	=79
4D	4f	4f	8aL)	.
.	.	.	(16ffL	.
.	.	.	16eenJJ	.
8r	8r	8r	16ddLL	.
.	.	.	16cc	.
8AA	8c	8f	16b-	.
.	.	.	16aJJ	.
=80	=80	=80	=80	=80
8BB-L	8dL	8dL	8gL)	.
8BB-'J	8G'J	8b-'J	8dd'J	.
8C'L	8A'L	8a'L	8cc'L	.
8C'J	8B-'J	8g'J	8en'J	.
=81	=81	=81	=81	=81
4FF	4A	4f	4f	.
4r	4r	4r	8r	.
.	.	.	(8c	p
=82	=82	=82	=82	=82
(4F	[2c	(2f	4.a)	.
4C	.	.	.	.
.	.	.	(8f	.
=83	=83	=83	=83	=83
4G	2c]	2en)	4.b-)	.
4C)	.	.	.	.
.	.	.	(8g	.
=84	=84	=84	=84	=84
(8AL	(8cL	(8fL	8ccL	.
!LO:TX:b:i:t=cresc.	!LO:TX:b:i:t=cresc.	!LO:TX:b:i:t=cresc.	!LO:TX:b:i:t=cresc.	!
8FJ	8AJ	8aJ	8ffJ	.
8B-L	8dL	8fL	8ddL	.
8GJ)	8B-J)	8b-J)	8ggJ)	.
=85	=85	=85	=85	=85
(4c	(4.c	(4a	(4ff	.
4B-)	.	4g)	8eenL)	.
.	8en)	.	8ccJ	.
=86	=86	=86	=86	=86
(2A	(2f	[2c	(12ffL	.
.	.	.	12aa	.
.	.	.	12ggJ	.
.	.	.	12ffL	.
.	.	.	12een	.
.	.	.	12ddJ)	.
=87	=87	=87	=87	=87
2En)	2g)	2c_	(12ccL	.
.	.	.	12bn	.
.	.	.	12ccJ	.
.	.	.	12cc#XL	.
.	.	.	12dd	.
.	.	.	12b-XJ)	.
=88	=88	=88	=88	=88
(4F	[4f	(8.cL]	(12aL	.
.	.	.	12cc	.
.	.	.	12fJ	.
.	.	16AJk)	.	.
4BB-	(8.fL]	(12B-L	12ddL	.
.	.	12d	12b-	.
.	.	12B-J)	12gJ)	.
.	16dJk)	.	.	.
=89	=89	=89	=89	=89
4C)	4c	(4A	(4f	.
4r	4r	8G)	8enL)	.
.	.	8r	(8cJ	.
=90	=90	=90	=90	=90
(4F	[2c	(2f	8a)	.
.	.	.	(4a	.
4C	.	.	.	.
.	.	.	8f)	.
=91	=91	=91	=91	=91
4G	2c]	2en)	8b-	.
.	.	.	(4b-	.
4C)	.	.	.	.
.	.	.	8g)	.
=92	=92	=92	=92	=92
!LO:TX:b:i:t=cresc.	!LO:TX:b:i:t=cresc.	!LO:TX:b:i:t=cresc.	!LO:TX:b:i:t=cresc.	!
(8AL	(8cL	(8fL	(8ccL	.
8FJ	8AJ	8aJ	8ffJ	.
8B-L	8dL	8fL	8ddL	.
8GJ)	8B-J)	8b-J)	8ggJ)	.
=93	=93	=93	=93	=93
(4c	(4.c	(4a	(4ff	.
4B-)	.	4g)	8eenL)	.
.	8en)	.	8ccJ	.
=94	=94	=94	=94	=94
2A	[2f	2c	(12ffL	.
.	.	.	12aa	.
.	.	.	12ggJ	.
.	.	.	12ffL	.
.	.	.	12een	.
.	.	.	12ffJ)	.
=95	=95	=95	=95	=95
(4B-	2f]	4B-	(12ddL	.
.	.	.	12cc#X	.
.	.	.	12ddJ	.
4d)	.	[4f	12b-L	.
.	.	.	12a	.
.	.	.	12b-J)	.
=96	=96	=96	=96	=96
4c	(4.c	(12fL]	(12aL	.
.	.	12b-	12dd	.
.	.	12aJ	12ccJ	.
4C	.	12gL	12b-L	.
.	.	12f	12a	.
.	8B-)	.	.	.
.	.	12enJ)	12gJ)	.
=97	=97	=97	=97	=97
4F	8AL	4f	4f	.
.	8C'J	.	.	.
8r	8F'L	8r	4r	.
(8F	8A'J	(8f	.	.
=98	=98	=98	=98	=98
8GL)	4B-	8enL	4r	.
8G'J	.	8gJ	.	.
8C'L	8r	8b-L	8r	.
8C'J	(8En	8gJ)	8cc	.
=99	=99	=99	=99	=99
4AA	8FL)	(8aL	(8ffL	.
.	8C'J	8ccJ)	8eenJ	.
8r	8F'L	8r	8ddL	.
(8F	8A'J	(8f	8ccJ)	.
=100	=100	=100	=100	=100
!LO:TX:b:i:t=cresc.	!LO:TX:b:i:t=cresc.	!LO:TX:b:i:t=cresc.	!LO:TX:b:i:t=cresc.	!
8GL)	4B-	8enL	4.cc	.
8G'J	.	8gJ	.	.
8C'L	8r	8b-L	.	.
8C'J	(8En	8gJ)	8cc	.
=101	=101	=101	=101	=101
4AA	8FL)	(8aL	(8ffL	.
.	8C'J	8ccJ)	8eenJ	.
8r	8F'L	8r	8ddL	.
(8F	8A'J	(8f	8ccJ)	.
=102	=102	=102	=102	=102
8GL)	4B-	8enL)	4.cc	.
8GJ	.	8gJ	.	.
8CL	8r	8b-L	.	.
8CJ	8En	8gJ	8cc	.
=103	=103	=103	=103	=103
(4AA	(4F	(4cc	(8ccL	.
.	.	.	8ffJ	.
4BB-)	4d	4b-)	8gL	.
.	.	.	8ddJ)	.
=104	=104	=104	=104	=104
2C	4c	4a	4f	.
.	4B-)	4en	4g	.
=105	=105	=105	=105	=105
2F	4en	(4g	(4b-	.
.	8fL	8fL)	8a)	.
.	(8FJ	(8ffJ	8r	.
=106	=106	=106	=106	=106
4r	8EnL	8ggL)	4r	.
.	8GJ	8ggJ	.	.
8r	8B-L	8ccL	8r	.
8C	8GJ)	8ccJ	(8een	.
=107	=107	=107	=107	=107
(8FL	(8AL	4a	8ffL)	.
8EnJ	8cJ)	.	8cc'J	.
8DL	8r	8r	8ff'L	.
8CJ)	8F	(8ff	8aa'J	.
=108	=108	=108	=108	=108
4.C	(8EnL	8ggL)	4bb-	.
.	8GJ	8gg'J	.	.
.	8B-L	8cc'L	8r	.
8C	8GJ)	8cc'J	(8een	.
=109	=109	=109	=109	=109
(8FL	(8AL	4a	8ffL)	.
!LO:TX:b:i:t=cresc.	!LO:TX:b:i:t=cresc.	!	!LO:TX:b:i:t=cresc.	!
8EnJ	8cJ)	.	8cc'J	.
!	!	!LO:TX:b:i:t=cresc.	!	!
8DL	8r	8r	8ff'L	.
8CJ)	(8F	(8ff	8aa'J	.
=110	=110	=110	=110	=110
4.C	8EnL	8ggL)	4bb-	.
.	8GJ	8gg'J	.	.
.	8B-L	8cc'L	8r	.
8BB-	8GJ)	8cc'J	(8een	.
=111	=111	=111	=111	=111
4AA	8FL	(4cc	8ffL)	.
.	8fJ	.	8cccJ	.
4BB-	8FL	4b-)	8ddL	.
.	8fJ	.	8dddJ	.
=112	=112	=112	=112	=112
8CL	(4f	8A'L	(4cc	.
8cJ	.	8a'J	.	.
8BB-L	4c)	8G'L	4een)	.
8B-J	.	8g'J	.	.
=113	=113	=113	=113	=113
8AAL	16cLL	16fLL	2ccc	.
.	16c	16f	.	.
8AJ	16c	16f	.	.
.	16cJJ	16fJJ	.	.
8AL	16cLL	16fLL	.	.
.	16c	16f	.	.
8AJ	16c	16f	.	.
.	16cJJ	16fJJ	.	.
=114	=114	=114	=114	=114
.	.	.	16qqccc/	.
8BB-L	16dLL	16fLL	8bb-L	.
.	16d	16f	.	.
8B-J	16d	16f	16aaL	.
.	16dJJ	16fJJ	16ggJJ	.
.	.	.	16qqgg/	.
8B-L	16fLL	16gLL	8ffL	.
.	16f	16g	.	.
8B-J	16f	16g	16eenL	.
.	16fJJ	16gJJ	16ddJJ	.
=115	=115	=115	=115	=115
8CL	16fLL	16aLL	2cc	.
.	16f	16a	.	.
8cJ	16f	16a	.	.
.	16fJJ	16aJJ	.	.
8cL	16fLL	16aLL	.	.
.	16f	16a	.	.
8cJ	16f	16a	.	.
.	16fJJ	16aJJ	.	.
=116	=116	=116	=116	=116
8D-XL	16enLL	16gLL	2b-	.
.	16e	16g	.	.
8d-XJ	16e	16g	.	.
.	16eJJ	16gJJ	.	.
8d-L	16eLL	16gLL	.	.
.	16e	16g	.	.
8d-J	16e	16g	.	.
.	16eJJ	16gJJ	.	.
=117	=117	=117	=117	=117
8DL	4f	(16fLL	2a	.
.	.	16en	.	.
8dJ	.	16f	.	.
.	.	16eJJ)	.	.
8dL	4r	8f	.	.
8dJ	.	8r	.	.
=118	=118	=118	=118	=118
8BBnL	(16fLL	(16a-XLL	2ddd	.
.	16en	16g	.	.
8BnJ	16f	16a-	.	.
.	16eJJ	16gJJ	.	.
8BL	8f)	8a-)	.	.
8BJ	8r	8r	.	.
=119	=119	=119	=119	=119
8CL	(16fLL	(16aLL	2ccc	.
.	16en	16g#X	.	.
8cJ	16f	16a	.	.
.	16eJJ	16g#JJ	.	.
8cL	8fL)	8aL)	.	.
8cJ	8f'J	8a'J	.	.
=120	=120	=120	=120	=120
8CCL	(16gLL	(16b-LL	2een	.
.	16f#X	16a	.	.
8CJ	16g	16b-	.	.
.	16f#JJ	16aJJ	.	.
8CL	8gL)	8b-L)	.	.
8CJ	8g'J	8b-'J	.	.
=121	=121	=121	=121	=121
4FF	4fn	4a	4ff	.
4r	4r	4r	4r	.
=122	=122	=122	=122	=122
2r	(4A	(4c	(4f	.
.	4B-)	4d)	4g)	.
=123	=123	=123	=123	=123
.	.	.	16qqf/	.
(4C	(4G	(4B-	8enL	.
.	.	.	16dL	.
.	.	.	16cJJ	.
4D)	4F)	4A)	8fL	.
.	.	.	8fJ	.
=124	=124	=124	=124	=124
8BB-L	8dL	8fL	8gL	.
8BB-J	8dJ	8fJ	8gJ	.
8CL	8e-L	8fL	8aL	.
8CJ	8e-J	8fJ	8aJ	.
=125	=125	=125	=125	=125
4D	4d	4f	(4cc	.
4r	4r	4r	8b-)	.
.	.	.	8r	.
=126	=126	=126	=126	=126
4r	4r	4r	(4b-	.
(4BB-	(4en	(4g	4dd)	.
=127	=127	=127	=127	=127
4AA)	4f)	4a)	(8ccL	.
.	.	.	16ddL	.
.	.	.	16eenJJ	.
8r	8r	8r	8ffL)	.
8D	8A	8f	8fJ	.
=128	=128	=128	=128	=128
8BB-L	8dL	8fL	8gL	.
8BB-J	8dJ	8fJ	8gJ	.
8CL	8cL	8enL	8ccL	.
8CJ	8B-J	8eJ	8ccJ	.
=129	=129	=129	=129	=129
4F	4A	4f	4f	.
4r	4r	8r	8r	.
.	.	(8ff	(8aa	.
=130	=130	=130	=130	=130
2r	2r	8aaL	8cccL	.
.	.	8ffJ	8aaJ	.
.	.	8aaL	8cccL	.
.	.	8ffJ	8aaJ	.
=131	=131	=131	=131	=131
4r	4r	4aa)	4ccc)	.
8r	8r	8r	8r	.
8C'	8B-'	8c' 8en	8g'	.
=132	=132	=132	=132	=132
8F'L	8A'L	8c'L 8f	8f'L	.
8C'J	8B-'J	8c'J 8en	8g'J	.
8F'L	8A'L	8c'L 8f	8f'L	.
8C'J	8B-'J	8c'J 8e	8g'J	.
=133	=133	=133	=133	=133
4F	4A	4c 4f	4f	.
4r	4r	4r	4r	.
=134:|!|:	=134:|!|:	=134:|!|:	=134:|!|:	=134:|!|:
(4F	(4f	2r	2r	.
4G)	4g)	.	.	.
=135	=135	=135	=135	=135
16qqF/	16qqf/	.	.	.
8EnL	8enL	4r	4r	.
16DL	16dL	.	.	.
16CJJ	16cJJ	.	.	.
4F	4f	8r	8r	.
.	.	(8ff	(8aa-X	.
=136	=136	=136	=136	=136
2r	2r	8aa-XL	8cccL	.
.	.	8ffJ	8aa-XJ	.
.	.	8aa-L	8cccL	.
.	.	8ffJ)	8aa-J)	.
=137	=137	=137	=137	=137
4r	4r	4aa-X	4ccc	.
8r	8r	8r	8r	.
8A-X	8c	8f	8cc	.
=138	=138	=138	=138	=138
8G'L	8d'L	8f'L	8bn'L	.
8A-X'J	8c'J	8f'J	8cc'J	.
8G'L	8d'L	8f'L	8b'L	.
8A-'J	8c'J	8f'J	8cc'J	.
=139	=139	=139	=139	=139
4G	4d	4f	4bn	.
4r	4r	4r	4r	.
=140	=140	=140	=140	=140
2r	4r	(4c	2r	.
.	(4F	4d)	.	.
=141	=141	=141	=141	=141
.	.	16qqc/	.	.
2r	4G)	8BnL	2r	.
.	.	16AL	.	.
.	.	16GJJ	.	.
.	16FLL	8cL	.	.
.	16E-	.	.	.
.	16D	8cJ	.	.
.	16CJJ	.	.	.
=142	=142	=142	=142	=142
2r	4F	(8d	2r	.
.	.	4f)	.	.
.	4G	.	.	.
.	.	8Bn	.	.
=143	=143	=143	=143	=143
2r	4C	4c	(4cc	.
.	4r	4r	4dd)	.
=144	=144	=144	=144	=144
.	.	.	16qqcc/	f
(4F	(8GL	(4d	8bnL	.
.	8BnJ	.	16aL	.
.	.	.	16gJJ	.
8E-)	4c)	8e-)	8ccL	.
8r	.	8r	8ccJ	.
=145	=145	=145	=145	=145
2r	2r	2r	(4ee-	.
.	.	.	4ff)	.
=146	=146	=146	=146	=146
.	.	.	16qqee-/	.
(4A-X	(8B-XL	(4f	8ddL	.
.	8dJ	.	16ccL	.
.	.	.	16b-JJ	.
8G)	8e-)	8g)	8ee-L	.
8r	8r	8r	8ee-J	.
=147	=147	=147	=147	=147
2r	2r	2r	(4gg	.
.	.	.	4aan)	.
=148	=148	=148	=148	=148
(4c	(8dL	(4a	16ggLL	.
.	.	.	16ff#X	.
.	8f#XJ	.	16een	.
.	.	.	16ddJJ	.
8B-)	8g)	8b-)	8ggL	.
8r	8r	8r	8ggJ	.
=149	=149	=149	=149	=149
2r	2r	(4gg	(4bb-	.
.	.	4aa)	4ccc)	.
=150	=150	=150	=150	=150
.	.	16qqgg/	16qqbb-/	.
2r	2r	8ff#XL	8aaL	.
.	.	16eenL	16ggL	.
.	.	16ddJJ	16ff#XJJ	.
.	.	8ggL	8bb-L	.
.	.	8ggJ	8bb-J	.
=151	=151	=151	=151	=151
2r	(4g	(4bb-	8ddd	.
.	.	.	4ddd	.
.	4a)	4ccc)	.	.
.	.	.	[8ddd	.
=152	=152	=152	=152	=152
.	16qqg/	16qqbb-/	.	.
2r	8f#XL	8aaL	8ddd]	.
.	16enL	16ggL	4ddd	.
.	16dJJ	16gg-XJJ	.	.
.	8gL	8bb-L	.	.
.	8gJ	8bb-J	[8ddd	.
=153	=153	=153	=153	=153
4G	4B-	8r	8ddd]	.
.	.	(8dd	4ee-	.
4A	4c	8ccL)	.	.
.	.	(8e-J	[8ccc	.
=154	=154	=154	=154	=154
16qqG/	16qqB-/	.	.	.
8F#XL	8AL	8dL)	8ccc]	.
16EnL	16GL	(8ccJ	4dd	.
16DJJ	16F#XJJ	.	.	.
8GL	8B-L	8b-L)	.	.
8GJ	8B-J	(8dJ	[8bb-	.
=155	=155	=155	=155	=155
(4En	(4G	8cL)	8bb-]	.
.	.	(8b-J	4cc	.
4Fn)	4A-X)	8a-XL)	.	.
.	.	(8cJ	[8aa-X	.
=156	=156	=156	=156	=156
16qqE-/	16qqG/	.	.	.
8DL	8FL	8B-L)	8aa-X]	.
16CL	16E-L	(8a-XJ	4b-	.
16BB-JJ	16DJJ	.	.	.
8E-L	8GL	8gL)	.	.
8E-J	8GJ	(8B-J	[8gg	.
=157	=157	=157	=157	=157
(4C	(4e-	8A-XL)	8gg]	.
.	.	(8gJ	4a-X	.
4D)	4f)	8fL)	.	.
.	.	(8A-J	[8ff	.
=158	=158	=158	=158	=158
16qqC/	16qqe-/	.	.	.
8BBnL	8dL	8GL)	8ff]	.
16AAL	16cL	(8fJ	4g	.
16GGJJ	16BnJJ	.	.	.
8CL	8e-L	8e-L)	.	.
8CJ	8e-J	(8gJ	[8ee-	.
=159	=159	=159	=159	=159
16qqBB-/	16qqd/	.	.	.
8AAL	8cL	8fL)	8ee-]	.
16GGL	16B-XL	(8e-J	4f	.
16FFJJ	16AJJ	.	.	.
8BB-L	8dL	8dL)	.	.
8BB-J	8dJ	(8fJ	[8dd	.
=160	=160	=160	=160	=160
16qqAA/	16qqc/	.	.	.
8GGL	8B-L	8enL)	8dd]	.
16FFL	16AL	(8dJ	4en	.
16EEnJJ	16GJJ	.	.	.
8AAL	8cL	8cL)	.	.
8AAJ	8cJ	(8eJ	[8cc	.
=161	=161	=161	=161	=161
8DD	8A	8f#X)	8ccL]	.
8r	8r	8r	8d'J	.
8F#X	8d	8a#X	8aa'L	.
8r	8r	8r	8cc'J	.
=162	=162	=162	=162	=162
8G	8d	8g	8b-'L	.
8r	8r	8r	8g'J	.
8E-X	8G	8g	8bb-'L	.
8r	8r	8r	8dd-X'J	.
=163	=163	=163	=163	=163
8DL	8A'L	8f#X'L	4dd	.
8DJ	8F#X'J	8d'J	.	.
8DL	8d'L	8ff#X'L	4aa	.
8DJ	8f#X'J	8cc'J	.	.
=164	=164	=164	=164	=164
8DL	8g'L	8b-'L	4bb-	.
8DJ	8B-'J	8g'J	.	.
8DL	8G'L	8bb-'L	4ccc#X	.
8DJ	8B-'J	8gg'J	.	.
=165	=165	=165	=165	=165
8DL	4A	4ff#X	4ddd	.
(8DJ	.	.	.	.
8dL)	4r	4r	4r	.
8dJ	.	.	.	.
=166	=166	=166	=166	=166
8dL	2r	2r	2r	.
8dJ	.	.	.	.
8dL	.	.	.	.
8dJ	.	.	.	.
=167	=167	=167	=167	=167
[2d	8r	2r	2r	.
.	8e-	.	.	.
.	8e-L	.	.	.
.	8e-J	.	.	.
=168	=168	=168	=168	=168
2d_	8e-L	2r	2r	.
.	8e-J	.	.	.
.	8e-L	.	.	.
.	8e-J	.	.	.
=169	=169	=169	=169	=169
8dL]	[2e-	(2gg	2r	.
8dJ	.	.	.	.
8dL	.	.	.	.
8dJ	.	.	.	.
=170	=170	=170	=170	=170
8cL	2e-]	2aa-X)	2r	.
8cJ	.	.	.	.
8cL	.	.	.	.
8cJ	.	.	.	.
=171	=171	=171	=171	=171
.	.	16qqgg/	.	.
8cL	8dL	8ffL	2r	.
8cJ	8dJ	16ee-L	.	.
.	.	16ddJJ	.	.
8B-L	8dL	8ggL	.	.
8B-J	8dJ	8ggJ	.	.
=172	=172	=172	=172	=172
8B-L	8cL	(4ee-	(4gg	.
8B-J	8cJ	.	.	.
8A-XL	8cL	4ff)	4aa-X)	.
8A-J	8cJ	.	.	.
=173	=173	=173	=173	=173
.	.	16qqee-/	16qqgg/	.
8A-XL	8B-L	8ddL	8ffL	.
8A-J	8B-J	16ccL	16ee-L	.
.	.	16b-JJ	16ddJJ	.
8GL	8B-L	8ee-L	8ggL	.
8GJ	8B-J	8ee-J	8ggJ	.
=174	=174	=174	=174	=174
8GL	8A-XL	(4cc	(4ee-	.
8GJ	8A-J	.	.	.
8FL	8A-L	4dd)	4ff)	.
8FJ	8A-J	.	.	.
=175	=175	=175	=175	=175
.	.	16qqcc/	16qqee-/	.
8FL	8GL	8bnL	8ddL	.
8FJ	8GJ	16aL	16ccL	.
.	.	16gJJ	16bnJJ	.
8E-	8G	8cc	8ee-	.
8r	8r	8r	8r	.
=176	=176	=176	=176	=176
2r	2r	8r	8r	.
.	.	8cc	(8ee-	.
.	.	8ee-L	8ggL	.
.	.	8ccJ	8ee-J)	.
=177	=177	=177	=177	=177
.	.	16qqb-/	16qqdd/	.
8E-L	8FL	8aL	8ccL	.
8E-J	8FJ	16gL	16b-L	.
.	.	16fJJ	16aJJ	.
8D	8F	8b-	8dd	.
8r	8r	8r	8r	.
=178	=178	=178	=178	=178
8r	8r	2r	2r	.
(8B-	(8d	.	.	.
8dL	8fL	.	.	.
8B-J)	8dJ)	.	.	.
=179	=179	=179	=179	=179
16qqB-/	16qqd/	.	.	.
8AL	8cL	4r	4r	.
16GL	16B-L	.	.	.
16FJJ	16AJJ	.	.	.
.	.	16qqcc/	16qqee-/	.
4B-	4d	8b-L	8ddL	.
.	.	16aL	16ccL	.
.	.	16gJJ	16b-JJ	.
=180	=180	=180	=180	=180
16qqB-/	16qqd/	.	.	.
8AL	8cL	4f	4ff	.
16GL	16B-L	.	.	.
16FJJ	16AJJ	.	.	.
.	.	16qqcc/	16qqee-/	.
4B-	4d	8b-L	8ddL	.
.	.	16aL	16ccL	.
.	.	16gJJ	16b-JJ	.
=181	=181	=181	=181	=181
16qqB-/	16qqd/	.	.	.
8AL	8cL	4f	4ff	.
16GL	16B-L	.	.	.
16FJJ	16AJJ	.	.	.
.	.	16qqcc/	16qqee-/	.
8B-L	8dL	8b-L	8ddL	.
8B-J	8dJ	16aL	16ccL	.
.	.	16gJJ	16b-JJ	.
=182	=182	=182	=182	=182
8AL	8cL	8fL	8ffL	.
8B-J	8dJ	8fJ	8ffJ	.
8AL	8cL	8fL	8ffL	.
8GJ	8B-J	8fJ	8ffJ	.
=183	=183	=183	=183	=183
8FL	4A	4f	(2ff	.
8FJ	.	.	.	.
8FL	4r	4r	.	.
8FJ	.	.	.	.
=184	=184	=184	=184	=184
8FL	2r	(2bn	2gg)	.
8FJ	.	.	.	.
8FL	.	.	.	.
8FJ	.	.	.	.
=185	=185	=185	=185	=185
.	.	.	16qqff/	.
8FL	(4e-	4cc)	8ee-L	.
8FJ	.	.	16ddL	.
.	.	.	16ccJJ	.
.	.	16qqb-/	.	.
8FL	4f)	8aL	8aa'L	.
8FJ	.	16gL	8aa'J	.
.	.	16fJJ	.	.
=186	=186	=186	=186	=186
.	16qqe-/	.	.	.
8FL	8dL	8ffL	8bb-'L	.
8FJ	16cL	8ddJ	8bb-'J	.
.	16B-JJ	.	.	.
8FL	8b-'L	8g'L	8een'L	.
8FJ	8b-'J	8g'J	8ee'J	.
=187	=187	=187	=187	=187
8FFL	4a	(2f	4ff	.
8FFJ	.	.	.	.
8FFL	4r	.	4r	.
8FFJ	.	.	.	.
=188	=188	=188	=188	=188
8FFL	(2B-	2g-X)	2r	.
8FFJ	.	.	.	.
8FFL	.	.	.	.
8FFJ	.	.	.	.
=189	=189	=189	=189	=189
.	.	16qqf/	.	.
8FFL	4c)	8e-L	(4ee-	.
8FFJ	.	16d-XL	.	.
.	.	16cJJ	.	.
.	16qqB-/	.	.	.
8FFL	8AL	8aL	4ff)	.
8FFJ	16GL	8aJ	.	.
.	16FJJ	.	.	.
=190	=190	=190	=190	=190
.	.	.	16qqee-/	.
8FFL	(8fL	8b-'L	8dd-XL	.
8FFJ	8d-XJ)	8b-'J	16ccL	.
.	.	.	16b-JJ	.
8FFL	8G'L	8en'L	8bb-'L	.
8FFJ	8G'J	8e'J	8bb-'J	.
=191	=191	=191	=191	=191
8FFL	8FL	4f	4aa	.
(8EnJ	(8enJ	.	.	.
4F)	4f)	8r	8r	.
.	.	(8a	(8cc	.
=192	=192	=192	=192	=192
2r	2r	8ccL	8ee-L	.
.	.	8aJ	8ccJ	.
.	.	8ccL	8ee-L	.
.	.	8aJ	8ccJ	.
=193	=193	=193	=193	=193
8r	8r	4cc)	4ee-)	.
(8G-X	(8g-X	.	.	.
4F)	4f)	8r	8r	.
.	.	(8cc	(8aa	.
=194	=194	=194	=194	=194
2r	2r	8ee-L	8cccL	.
.	.	8ccJ	8aaJ	.
.	.	8ee-L	8cccL	.
.	.	8ccJ	8aaJ	.
=195	=195	=195	=195	=195
8r	8r	4ee-)	4ccc)	.
(8B-	(8g-X	.	.	.
8AL	8fL	8r	8r	.
8B-J	8g-J	(8ee-	(8ccc	.
=196	=196	=196	=196	=196
8AL)	8fL)	8cccL	8eee-L	.
8G-XJ	8b-J	8ee-J	8cccJ	.
8FL	8aL	8cccL	8eee-L	.
8G-J	8b-J	8ee-J	8cccJ	.
=197	=197	=197	=197	=197
4F	4a	4ccc)	4eee-)	.
4r	4r	4r	8r	.
.	.	.	(8f	.
=198	=198	=198	=198	=198
2r	2r	2r	8f#XL	.
.	.	.	8gJ	.
.	.	.	8a-XL	.
.	.	.	8anJ)	.
=199	=199	=199	=199	=199
2r	2r	2r	(4b-	.
.	.	.	4cc)	.
=200	=200	=200	=200	=200
.	.	.	16qqb-/	.
2r	2r	2r	8aL	.
.	.	.	16gL	.
.	.	.	16fJJ	.
.	.	.	8b-L	.
.	.	.	8b-J	.
=201	=201	=201	=201	=201
2r	8AL	8fL	8ccL	.
.	8AJ	8fJ	8ccJ	.
.	8B-L	8fL	8ddL	.
.	8B-J	8fJ	8ddJ	.
=202	=202	=202	=202	=202
2r	(8dL	4f	(8ffL	.
.	8cJ)	.	8ee-J)	.
.	4A	4r	4cc	.
=203	=203	=203	=203	=203
2r	2r	2r	(4b-	.
.	.	.	4cc)	.
=204	=204	=204	=204	=204
.	.	.	16qqb-/	.
2r	2r	2r	(8aL	.
.	.	.	16gL	.
.	.	.	16fJJ)	.
.	.	.	8b-L	.
.	.	.	8b-J	.
=205	=205	=205	=205	=205
2r	8E-L	8gL	8ccL	.
.	8E-J	8gJ	8ccJ	.
.	8FL	8AL	8fL	.
.	8FJ	8AJ	8fJ	.
=206	=206	=206	=206	=206
2r	4B-	4B-	4d	.
.	4r	4r	4r	.
=207	=207	=207	=207	=207
2r	2r	(4b-	(4bb-	.
.	.	4cc)	4ccc)	.
=208	=208	=208	=208	=208
.	.	16qqb-/	16qqbb-/	.
2r	2r	8aL	8aaL	.
.	.	16gL	16ggL	.
.	.	16fJJ	16ffJJ	.
.	.	8b-L	8bb-L	.
.	.	8b-J	8bb-J	.
=209	=209	=209	=209	=209
8AL	8fL	8ccL	8cccL	.
8AJ	8fJ	8ccJ	8cccJ	.
8B-L	8fL	8ddL	8dddL	.
8B-J	8fJ	8ddJ	8dddJ	.
=210	=210	=210	=210	=210
(8dL	4f	(8ffL	(8fffL	.
8cJ)	.	8ee-J)	8eee-J)	.
4A	4r	4cc	4ccc	.
=211	=211	=211	=211	=211
2r	2r	(4b-	(4bb-	.
.	.	4cc)	4ccc)	.
=212	=212	=212	=212	=212
.	.	16qqb-/	16qqbb-/	.
2r	2r	8aL	8aaL	.
.	.	16gL	16ggL	.
.	.	16fJJ	16ffJJ	.
.	.	8b-L	8bb-L	.
.	.	8b-J	8bb-J	.
=213	=213	=213	=213	=213
8E-L	8gL	8ccL	8cccL	.
8E-J	8gJ	8ccJ	8cccJ	.
8FL	8AL	8fL	8ffL	.
8FJ	8AJ	8fJ	8ffJ	.
=214	=214	=214	=214	=214
4BB-	4B-	4d	4dd	.
8r	8r	4r	4r	.
(8B-	(8b-	.	.	.
=215	=215	=215	=215	=215
8cL)	8ccL)	2r	2r	.
8c'J	8cc'J	.	.	.
8F'L	8f'L	.	.	.
8F'J	8f'J	.	.	.
=216	=216	=216	=216	=216
4D	4d	(8fL	(8ffL	.
.	.	8dJ	8ddJ	.
8r	8r	8B-)	8b-)	.
(8B-	(8b-	8r	8r	.
=217	=217	=217	=217	=217
8cL)	8ccL)	2r	2r	.
8c'J	8cc'J	.	.	.
8F'L	8f'L	.	.	.
8F'J	8f'J	.	.	.
=218	=218	=218	=218	=218
4D	4d	(8fL	(8ffL	.
.	.	8dJ	8ddJ	.
8r	8r	8b-)	8bb-)	.
(8B-	(8b-	8r	8r	.
=219	=219	=219	=219	=219
8cL)	8ccL)	2r	2r	.
8c'J	8cc'J	.	.	.
8F'L	8f'L	.	.	.
8F'J	8f'J	.	.	.
=220	=220	=220	=220	=220
4.D	4.d	(8.fL	(8.ffL	.
.	.	32gLL	32ggLL	.
.	.	32aJJJ	32aaJJJ	.
.	.	8b-L)	8bb-L)	.
8D	8f	8aJ	8aaJ	.
=221	=221	=221	=221	=221
8E-'L	8e-'L	8g'L	8gg'L	.
8F'J	8d'J	8f'J	8ff'J	.
8G'L	8c'L	8e-'L	8ee-'L	.
8En'J	8B-'J	8d'J	8dd'J	.
=222	=222	=222	=222	=222
4F	(8dL	(8fL	(8ffL	.
.	8B-J)	8dJ)	8ddJ)	.
4r	4A	8cL	8ccL	.
.	.	(8b-J	(8bb-J	.
=223	=223	=223	=223	=223
2r	2r	8ccL)	8cccL)	.
.	.	8cc'J	8ccc'J	.
.	.	8f'L	8ff'L	.
.	.	8f'J	8ff'J	.
=224	=224	=224	=224	=224
(8FL	(8fL	4d	4dd	.
8DJ	8dJ	.	.	.
8BB-)	8B-)	8r	8r	.
8r	8r	(8b-	(8bb-	.
=225	=225	=225	=225	=225
2r	2r	8ccL)	8cccL)	.
.	.	8cc'J	8ccc'J	.
.	.	8f'L	8ff'L	.
.	.	8f'J	8ff'J	.
=226	=226	=226	=226	=226
(8FL	(8fL	4d	4dd	.
8DJ	8dJ	.	.	.
8B-)	8b-)	8r	8r	.
8r	8r	(8b-	(8bb-	.
=227	=227	=227	=227	=227
2r	2r	8ccL)	8cccL)	.
.	.	8cc'J	8ccc'J	.
.	.	8f'L	8ff'L	.
.	.	8f'J	8ff'J	.
=228	=228	=228	=228	=228
(4.Bn	[2f	[2g	(4.dd	.
8c	.	.	8ee-	.
=229	=229	=229	=229	=229
8BnL	(2f]	2g_	8ddL	.
8cJ	.	.	8ee-J	.
8BL	.	.	8ddL	.
8GJ)	.	.	8ggJ)	.
=230	=230	=230	=230	=230
(2B-	4en)	(4g]	(12.ggL	.
.	.	.	24ffL	.
.	.	.	24een	.
.	.	.	24ddJJ	.
.	[4e-X	4g-X)	8ccL)	.
.	.	.	(8dd-XJ	.
=231	=231	=231	=231	=231
8AL	2e-]	[2f	8ccL	.
8B-J	.	.	8dd-XJ	.
8AL	.	.	8ccL	.
8FJ)	.	.	8ffJ)	.
=232	=232	=232	=232	=232
2A-X	2d	2f]	12.ffL	.
.	.	.	24ee-L	.
.	.	.	24dd	.
.	.	.	24ccJJ	.
.	.	.	8b-L	.
.	.	.	8b-J	.
=233	=233	=233	=233	=233
(4G-X	[2B-	(4e-	(8b-	.
.	.	.	4ee-	.
4F)	.	4f)	.	.
.	.	.	8dd-X)	.
=234	=234	=234	=234	=234
2E-	2B-_	(2g-X	(8dd-XL	.
.	.	.	8ccJ)	.
.	.	.	(8ccL	.
.	.	.	8dd-J)	.
=235	=235	=235	=235	=235
2En	(8B-L]	2g)	(8dd-XL	.
.	8cJ)	.	8ccJ)	.
.	(8cL	.	(8ccL	.
.	8d-XJ)	.	8b-J)	.
=236	=236	=236	=236	=236
4F	4c	4f	(8aL	.
.	.	.	8ccJ)	.
4r	8r	8r	(8ccL	.
.	(8g-X	(8b-	8eenJ)	.
=237	=237	=237	=237	=237
2r	4f)	4a)	(8ffL	.
.	.	.	8aaJ)	.
.	8r	8r	(8aaL	.
.	(8g-X	(8b-	8eenJ)	.
=238	=238	=238	=238	=238
4r	4f)	4a)	(8ffL	.
.	.	.	8cccJ)	.
8r	8r	8r	8cccL	.
8c'	8g'	8b-'	8een'J	.
=239	=239	=239	=239	=239
8F'L	8f'L	8a'L	8ff'L	.
8c'J	8g'J	8b-'J	8een'J	.
8F'L	8f'L	8a'L	8ff'L	.
8c'J	8g'J	8b-'J	8ee'J	.
=240	=240	=240	=240	=240
4F	4f	4a	(4.ff	.
4r	4r	4r	.	.
.	.	.	8ff#X	p
=241	=241	=241	=241	=241
2r	2r	2r	8ggL	.
.	.	.	8ffJ	.
.	.	.	8eenL	.
.	.	.	8ee-XJ	.
=242	=242	=242	=242	=242
(4.B-	[2f	(4.dd	4dd)	.
.	.	.	4r	.
8d)	.	8ff)	.	.
=243	=243	=243	=243	=243
8A'L	2f_	8cc'L	2r	.
8A'J	.	8cc'J	.	.
8A'L	.	8cc'L	.	.
8Bn'J	.	8dd'J	.	.
=244	=244	=244	=244	=244
(8dL	4f]	(8ffL	8r	.
8cJ)	.	8ee-J)	(16ffLL	.
.	.	.	16ggJJ	.
8c'	4r	8ee-'	8aaL)	.
8r	.	8r	(16aaL	.
.	.	.	16bb-JJ	.
=245	=245	=245	=245	=245
2r	2r	2r	8cccL)	.
.	.	.	(16aaL	.
.	.	.	16bb-JJ	.
.	.	.	8cccL)	.
.	.	.	(16cccL	.
.	.	.	16dddJJ	.
=246	=246	=246	=246	=246
4.c	[2f	4.ee-	4eee-)	.
.	.	.	4r	.
8e-	.	8gg	.	.
=247	=247	=247	=247	=247
8B-'L	8fL]	8dd'L	2r	.
8B-'J	8f'J	8dd'J	.	.
8B-'L	8f'L	8dd'L	.	.
8c'J	8f'J	8ee-'J	.	.
=248	=248	=248	=248	=248
(8e-L	(8aL	(8ggL	8r	.
8dJ)	8b-J)	8ffJ)	(16b-LL	.
.	.	.	16ccJJ	.
4d'	4b-'	4ff'	8ddL)	.
.	.	.	(16ddL	.
.	.	.	16ee-JJ	.
=249	=249	=249	=249	=249
2r	2r	2r	8ffL)	.
.	.	.	(16ddL	.
.	.	.	16ee-JJ	.
.	.	.	8ffL)	.
.	.	.	(16ffL	.
.	.	.	16ggJJ	.
=250	=250	=250	=250	=250
2r	(4.Bn	(4.d	4.aa-X	.
.	8f)	8a-X)	8bn)	.
=251	=251	=251	=251	=251
4r	8e-L	8gL	4cc	.
.	8e-J	8gJ	.	.
4G	8dL	8fL	4dd	.
.	8dJ	8fJ	.	.
=252	=252	=252	=252	=252
4C	(8BnL	(8dL	(8ff	.
.	8cJ)	8e-J)	4ee-	.
4r	8cL	8e-L	.	.
.	8e-J	8g-XJ	8a)	.
=253	=253	=253	=253	=253
4r	8dL	8fL	(4b-	.
.	8dJ	8fJ	.	.
4F	8cL	8e-L	4cc)	.
.	8cJ	8e-J	.	.
=254	=254	=254	=254	=254
4BB-	(8AL	(8cL	(8ee-L	.
.	8B-J)	8dJ)	8ddJ)	.
4r	8r	8r	(4ff	.
.	8B-	8d	.	.
=255	=255	=255	=255	=255
2r	8r	8r	4ee-	.
.	8c	8e-	.	.
.	8r	8r	[4dd)	.
.	8d	8f	.	.
=256	=256	=256	=256	=256
4r	(2e-	(2g	8ddL]	.
.	.	.	8ccJ	.
4E-	.	.	8ddL	.
.	.	.	[8ee-J	.
=257	=257	=257	=257	=257
4F	4d	4f	8ee-]	.
.	.	.	4b-	.
4FF	4c)	4e-)	.	.
.	.	.	8cc	.
=258	=258	=258	=258	=258
4BB-	(8AL	(8c#XL	8cc#XL	.
.	8B-J)	8dJ)	8ddJ	.
(4BB-	(4D	8r	8r	.
.	.	[8f	[8ff	.
=259	=259	=259	=259	=259
4C	4E-	8f]	8ff]	.
.	.	(4e-	(4ee-	.
4D)	4F)	.	.	.
.	.	[8d)	[8dd)	.
=260	=260	=260	=260	=260
(4E-	(4G	8dL]	8ddL]	.
.	.	8cJ	8ccJ	.
4C	4E-	8r	8r	.
.	.	[8g	[8gg	.
=261	=261	=261	=261	=261
4D	4F	8g]	8gg]	.
.	.	(4f	(4ff	.
4E-)	4G)	.	.	.
.	.	[8e-)	[8ee-)	.
=262	=262	=262	=262	=262
(4F	(4A-X	8e-L]	8ee-L]	.
.	.	8dJ	8ddJ	.
4D	4F	8r	8r	.
.	.	[8a-X	[8aa-X	.
=263	=263	=263	=263	=263
4E-	4G	8a-X]	8aa-X]	.
.	.	(4g	(4gg	.
4F)	4A-X)	.	.	.
.	.	8f)	8ff)	.
=264	=264	=264	=264	=264
8GL	8B-	(2e-	(2ee-	.
8GJ	4c	.	.	.
8GL	.	.	.	.
8GJ	[8d-X	.	.	.
=265	=265	=265	=265	=265
8GL	8d-X]	2en)	2een)	.
8GJ	4c	.	.	.
8GL	.	.	.	.
8GJ	8B-	.	.	.
=266	=266	=266	=266	=266
8AL	4c	(4.f	8ff'L	.
8AJ	.	.	8cc'J	.
8AL	4r	.	[4ee-	.
8AJ	.	8g-X)	.	.
=267	=267	=267	=267	=267
8B-L	(4.f	(8fL	(4ee-]	.
8B-J	.	8aJ	.	.
8B-L	.	4b-)	[4dd)	.
8B-J	8f#X)	.	.	.
=268	=268	=268	=268	=268
8E-L	8gL	4r	(16ddLL]	.
.	.	.	16cc	.
8E-J	8gJ	.	16bn	.
.	.	.	16ccJJ	.
8E-L	8gL	8r	16bLL	.
.	.	.	16cc	.
8E-J	8gJ	(16gLL	16ee-	.
.	.	16e-JJ)	16ccJJ)	.
=269	=269	=269	=269	=269
8FL	8fL	(4d	(4b-	.
8FJ	8fJ	.	.	.
8G-XL	8e-L	4c)	4a)	.
8G-J	8e-J	.	.	.
=270	=270	=270	=270	=270
4G	4d	4B-	8b-L	.
.	.	.	(16dddL	.
.	.	.	16cccJJ	.
4r	4r	4r	16bb-LL	.
.	.	.	16aa	.
.	.	.	16gg	.
.	.	.	16ffJJ)	.
=271	=271	=271	=271	=271
8r	8r	8r	2een	.
8C	8g	8b-	.	.
8CL	8gL	8b-L	.	.
8CJ	8gJ	8b-J	.	.
=272	=272	=272	=272	=272
4F	4f	4a	8r	.
.	.	.	(16cccLL	.
.	.	.	16bb-JJ	.
8r	8r	8r	16aaLL	.
.	.	.	16gg	.
8F	8a	8cc	16ff	.
.	.	.	16ee-JJ	.
=273	=273	=273	=273	=273
4G	4b-	4b-	8ddL)	.
.	.	.	(16bb-L	.
.	.	.	16aaJJ	.
8r	8r	8r	16ggLL	.
.	.	.	16ff	.
8D	8f	8b-	16ee-	.
.	.	.	16ddJJ	.
=274	=274	=274	=274	=274
8E-L	8gL	8gL	8ccL)	.
8E-'J	8c'J	8ee-'J	8gg'J	.
8F'L	8d'L	8dd'L	8ff'L	.
8F'J	8e-'J	8cc'J	8a'J	.
=275	=275	=275	=275	=275
4BB-	4d	4b-	4b-	.
4r	4r	4r	8r	.
.	.	.	(8f	p
=276	=276	=276	=276	=276
(4B-	[2f	(2b-	4.dd)	.
4F	.	.	.	.
.	.	.	(8b-	.
=277	=277	=277	=277	=277
4c	2f_	2a)	4.ee-)	.
4F)	.	.	.	.
.	.	.	(8cc	.
=278	=278	=278	=278	=278
(8dL	(8fL]	(8b-L	8ffL	.
!LO:TX:b:i:t=cresc.	!LO:TX:b:i:t=cresc.	!LO:TX:b:i:t=cresc.	!LO:TX:b:i:t=cresc.	!
8B-J	8dJ	8ddJ	8bb-J	.
8e-L	8gL	8b-L	8ggL	.
8cJ)	8e-J)	8ee-J)	8cccJ)	.
=279	=279	=279	=279	=279
(4f	(4.f	(4dd	(4bb-	.
4e-)	.	4cc)	8aaL)	.
.	8a)	.	8ffJ	.
=280	=280	=280	=280	=280
(2d	(2b-	[2f	(12bb-L	.
.	.	.	12ddd	.
.	.	.	12cccJ	.
.	.	.	12bb-L	.
.	.	.	12aa	.
.	.	.	12ggJ	.
=281	=281	=281	=281	=281
2A)	2cc)	2f_	12ffL	.
.	.	.	12een	.
.	.	.	12ffJ	.
.	.	.	12ff#XL	.
.	.	.	12gg	.
.	.	.	12ee-XJ)	.
=282	=282	=282	=282	=282
(4B-	[4b-	(8.fL]	(12ddL	.
.	.	.	12ff	.
.	.	.	12b-J	.
.	.	16dJk)	.	.
4E-)	(8.b-L]	(12e-L	12ggL	.
.	.	12g	12ee-	.
.	.	12e-J)	12ccJ)	.
.	16gJk)	.	.	.
=283	=283	=283	=283	=283
4F	4f	(4d	(4b-	.
4r	8r	8c)	8aL)	.
.	(8F	8r	(8fJ	.
=284	=284	=284	=284	=284
(4BB-	8d)	2f	8dd)	.
.	(4d	.	(4dd	.
4FF)	.	.	.	.
.	8B-	.	8b-	.
=285	=285	=285	=285	=285
(4C	8e-)	2A	8ee-)	.
.	(4e-	.	(4ee-	.
4FF)	.	.	.	.
.	8c	.	8cc	.
=286	=286	=286	=286	=286
(8DL	8fL	(8B-L	8ffL	.
8BB-J	8b-J	8dJ	8bb-J	.
8E-L	8gL	8B-L	8ggL	.
8CJ)	8ccJ)	8e-J)	8cccJ)	.
=287	=287	=287	=287	=287
(4F	(4b-	(4d	(4bb-	.
4E-)	4a)	4c)	8aaL)	.
.	.	.	8ffJ	.
=288	=288	=288	=288	=288
2D	[2b-	(2f	(12bb-L	.
.	.	.	12ddd	.
.	.	.	12cccJ	.
.	.	.	12bb-L	.
.	.	.	12aa	.
.	.	.	12bb-J)	.
=289	=289	=289	=289	=289
4E-	4b-]	4e-)	(12ggL	.
.	.	.	12ff#X	.
.	.	.	12ggJ	.
4G	4B-	[4b-	12ee-L	.
.	.	.	12dd	.
.	.	.	12ee-J)	.
=290	=290	=290	=290	=290
4F	(4.f	12b-L]	(12ddL	.
.	.	(12ee-	12gg	.
.	.	12ddJ	12ffnJ	.
4FF	.	12ccL	12ee-L	.
.	.	12b-	12dd	.
.	8e-	.	.	.
.	.	12aJ)	12ccJ)	.
=291	=291	=291	=291	=291
4BB-	4d)	8b-'L	4b-	.
.	.	8f'J	.	.
8r	4r	8b-'L	8r	.
(8BB-	.	8dd'J	(8bb-	.
=292	=292	=292	=292	=292
8CL)	4r	4ee-	8aaL	.
8C'J	.	.	8cccJ	.
8FF'L	8r	8r	8eee-L	.
8FF'J	8F	(8a	8cccJ)	.
=293	=293	=293	=293	=293
4DD	(8B-L	8b-L)	(8dddL	.
.	8AJ	8f'J	8fffJ)	.
8r	8GL	8b-'L	8r	.
(8BB-	8FJ)	8dd'J	(8bb-	.
=294	=294	=294	=294	=294
8CL)	4.F	4ee-	8aaL	.
8C'J	.	.	8cccJ	.
8FF'L	.	8r	8eee-L	.
8FF'J	8F	(8a	8cccJ)	.
=295	=295	=295	=295	=295
4DD	(8B-L	8b-L)	(8dddL	.
!	!LO:TX:b:i:t=cresc.	!LO:TX:b:i:t=cresc.	!LO:TX:b:i:t=cresc.	!
.	8AJ	8f'J	8fffJ)	.
!LO:TX:b:i:t=cresc.	!	!	!	!
8r	8GL	8b-'L	8r	.
(8BB-	8FJ)	8dd'J	(8bb-	.
=296	=296	=296	=296	=296
8CL)	4.F	4ee-	8aaL	.
8C'J	.	.	8cccJ	.
8FF'L	.	8r	8eee-L	.
8FF'J	8F	8a	8cccJ)	.
=297	=297	=297	=297	=297
(4DD	(8fL	(8b-L	(8bb-L	.
.	8b-J)	8ddJ)	8dddJ)	.
4EE-)	(8e-L	(8gL	(8ggL	.
.	8gJ)	8b-J)	8bb-J)	.
=298	=298	=298	=298	=298
2FF	(4f	(4d	(4b-	.
.	4e-)	4A)	4cc)	.
=299	=299	=299	=299	=299
2BB-	(4c	(4a	(4ee-	.
.	8B-L)	8b-)	8ddL)	.
.	(8B-J	8r	(8bb-J	.
=300	=300	=300	=300	=300
4r	8AL	4r	8cccL)	.
.	8cJ	.	8ccc'J	.
8r	8e-L	8r	8ff'L	.
(8AA	8cJ)	8f	8ff'J	.
=301	=301	=301	=301	=301
8BB-L)	(8dL	(8b-L	4dd	.
8FF'J	8fJ)	8aJ	.	.
8BB-'L	8r	8gL	8r	.
8D'J	(8B-	8fJ)	(8bb-	.
=302	=302	=302	=302	=302
4E-	8AL	4.f	8cccL)	.
.	8cJ	.	8ccc'J	.
8r	8e-L	.	8ff'L	.
(8AA	8cJ)	8f	8ff'J	.
=303	=303	=303	=303	=303
8BB-L)	8dL	(8b-L	4dd	.
8FF'J	8fJ	8aJ	.	.
8BB-'L	8r	8gL	8r	.
8D'J	(8B-	8fJ)	(8bb-	.
=304	=304	=304	=304	=304
4.E-	8AL	[2f	8cccL)	.
.	8cJ)	.	8ccc'J	.
!	!	!	!LO:TX:b:i:t=cresc.	!
.	4e-	.	8ff'L	.
(8AA	.	.	8ff'J	.
=305	=305	=305	=305	=305
!LO:TX:b:i:t=cresc.	!LO:TX:b:i:t=cresc.	!LO:TX:b:i:t=cresc.	!	!
4.BB-)	4.d	8fL]	8ddd'L	.
.	.	(8f#XJ	8ddd'J	.
.	.	[4g)	8gg'L	.
(8BBn	(8f	.	8gg'J	.
=306	=306	=306	=306	=306
4.C)	4.e-)	8gL]	8eee-L	.
.	.	(8gJ	8eee-J	.
.	.	4a)	8aaL	.
(8C	(8e-	.	8aaJ	.
=307	=307	=307	=307	=307
8DL)	16fLL)	16b-LL	2fff	.
.	16f	16b-	.	.
8DJ	16f	16b-	.	.
.	16fJJ	16b-JJ	.	.
8DL	16fLL	16b-LL	.	.
.	16f	16b-	.	.
8DJ	16f	16b-	.	.
.	16fJJ	16b-JJ	.	.
=308	=308	=308	=308	=308
8AA-XL	16FLL	16B-LL	2d	.
.	16F	16B-	.	.
8AA-J	16F	16B-	.	.
.	16FJJ	16B-JJ	.	.
8AA-L	16FLL	16B-LL	.	.
.	16F	16B-	.	.
8AA-J	16F	16B-	.	.
.	16FJJ	16B-JJ	.	.
=309	=309	=309	=309	=309
8GGL	16GLL	16B-LL	2e-	.
.	16G	16B-	.	.
8GGJ	16G	16B-	.	.
.	16GJJ	16B-JJ	.	.
8GGL	16GLL	16B-LL	.	.
.	16G	16B-	.	.
8GGJ	16G	16B-	.	.
.	16GJJ	16B-JJ	.	.
=310	=310	=310	=310	=310
8EEnL	16b-LL	16dd-XLL	2gg	.
.	16b-	16dd-	.	.
8EEJ	16b-	16dd-	.	.
.	16b-JJ	16dd-JJ	.	.
8EEL	16b-LL	16dd-LL	.	.
.	16b-	16dd-	.	.
8EEJ	16b-	16dd-	.	.
.	16b-JJ	16dd-JJ	.	.
=311	=311	=311	=311	=311
8FFL	16b-LL	16ddLL	2ff	.
.	16b-	16dd	.	.
8FFJ	16b-	16dd	.	.
.	16b-JJ	16ddJJ	.	.
8FFL	16b-LL	16ddLL	.	.
.	16b-	16dd	.	.
8FFJ	16b-	16dd	.	.
.	16b-JJ	16ddJJ	.	.
=312	=312	=312	=312	=312
8GG-XL	16aLL	16ccLL	2ee-	.
.	16a	16cc	.	.
8GG-J	16a	16cc	.	.
.	16aJJ	16ccJJ	.	.
8GG-L	16aLL	16ccLL	.	.
.	16a	16cc	.	.
8GG-J	16a	16cc	.	.
.	16aJJ	16ccJJ	.	.
=313	=313	=313	=313	=313
8GGL	4b-	(16b-LL	4dd	.
.	.	16a	.	.
8GJ	.	16b-	.	.
.	.	16aJJ	.	.
8GL	4r	4b-)	8r	.
8GJ	.	.	8dd	.
=314	=314	=314	=314	=314
8FL	(16b-LL	(16ddLL	(8bb-L	.
.	16a	16cc#X	.	.
8FJ	16b-	16dd	8aa-XJ)	.
.	16aJJ	16cc#JJ	.	.
8FL	4b-)	4dd)	8r	.
8FJ	.	.	8aa-	.
=315	=315	=315	=315	=315
8E-L	8b-L	(16ee-LL	(8ff#XL	.
.	.	16dd	.	.
8E-J	8b-J	16ee-	8ggJ)	.
.	.	16ddJJ	.	.
8E-L	4b-	4ee-)	8r	.
8E-J	.	.	8gg	.
=316	=316	=316	=316	=316
8EnL	8gL	(16ccLL	(8aaL	.
.	.	16bn	.	.
8EJ	8gJ	16cc	8bb-J)	.
.	.	16bJJ	.	.
8EL	4g	4cc)	8r	.
8EJ	.	.	8bb-	.
=317	=317	=317	=317	=317
8FL	(16fLL	(16ddLL	(8bb-L	.
.	16a	16cc#X	.	.
8FJ	16b-	16dd	8ffJ)	.
.	16aJJ	16cc#JJ	.	.
8FL	4b-)	4dd)	8r	.
8FJ	.	.	8dd	.
=318	=318	=318	=318	=318
8FL	(16cLL	(16aLL	(8ffL	.
.	16d	16b-	.	.
8FJ	16c	16a	8ee-J)	.
.	16dJJ	16b-JJ	.	.
8FL	8cL)	8aL)	8r	.
8FJ	8e-'J	8a'J	8cc	.
=319	=319	=319	=319	=319
4BB-	4d	4b-	4b-	.
4r	4r	4r	4r	.
=320	=320	=320	=320	=320
2r	(4d	(4f	(4b-	.
.	4e-)	4g)	4cc)	.
=321	=321	=321	=321	=321
.	.	.	16qqb-/	.
(4F	(4c	(4e-	8aL	.
.	.	.	16gL	.
.	.	.	16fJJ	.
4G)	4B-)	4d)	8b-L	.
.	.	.	8b-J	.
=322	=322	=322	=322	=322
8E-'L	8g'L	8b-'L	8cc'L	.
8E-'J	8g'J	8b-'J	8cc'J	.
8F'L	8a-X'L	8b-'L	8dd'L	.
8F'J	8a-'J	8b-'J	8dd'J	.
=323	=323	=323	=323	=323
4G	4g	4b-	(4ff	.
4r	4r	4r	8ee-)	.
.	.	.	8r	.
=324	=324	=324	=324	=324
4r	4r	4r	(4ee-	.
(4e-	(4an	(4cc	4gg)	.
=325	=325	=325	=325	=325
4d)	4b-)	4dd)	(8ffL	.
.	.	.	16ggL	.
.	.	.	16aaJJ	.
8r	8r	8r	8bb-L)	.
8G	8d	8b-	(8b-J	.
=326	=326	=326	=326	=326
8E-'L	8g'L	8b-'L	8ccL)	.
8E-'J	8g'J	8b-'J	8cc'J	.
8F'L	8f'L	8a'L	8ff'L	.
8F'J	8e-'J	8a'J	8ff'J	.
=327	=327	=327	=327	=327
4B-	4d	4b-	4b-	.
4r	4r	8r	8r	.
.	.	(8bb-	(8ddd	.
=328	=328	=328	=328	=328
2r	2r	8dddL	8fffL	.
.	.	8bb-J	8dddJ	.
.	.	8dddL	8fffL	.
.	.	8bb-J	8dddJ	.
=329	=329	=329	=329	=329
8r	8r	4ddd)	4fff)	.
(8A	(8c#X	.	.	.
[4B-)	[4d)	8r	8r	.
.	.	(8dd	(8bb-	.
=330	=330	=330	=330	=330
2B-_	2d_	8ffL	8dddL	.
.	.	8ddJ	8bb-J	.
.	.	8ffL	8dddL	.
.	.	8ddJ)	8bb-J)	.
=331	=331	=331	=331	=331
8B-L]	8dL]	4ff	4ddd	.
(8AAJ	(8C#XJ	.	.	.
[4BB-)	[4D)	8r	8r	.
.	.	(8b-	(8dd	.
=332	=332	=332	=332	=332
2BB-_	2D_	8ddL	8ffL	.
.	.	8b-J	8ddJ	.
.	.	8ddL	8ffL	.
.	.	8b-J	8ddJ	.
=333	=333	=333	=333	=333
4BB-]	4D]	4dd)	4ff)	.
8r	8r	8r	8r	.
8FF'	8cc'	8f' 8ee-	8aa'	.
=334	=334	=334	=334	=334
8BB-'L	8b-'L	8f'L 8dd	8bb-'L	.
8FF'J	8cc'J	8f'J 8ee-	8aa'J	.
8BB-'L	8b-'L	8f'L 8dd	8bb-'L	.
8FF'J	8cc'J	8f'J 8ee-	8aa'J	.
=335	=335	=335	=335	=335
4BB-	4b-	4f 4dd	4bb-	.
4r	4r	4r	4r	.
=:|!	=:|!	=:|!	=:|!	=:|!
*-	*-	*-	*-	*-
!!!system-decoration: [(s1,s2,s3,s4)]
